X: 59
T:Paddy's Trip to Scotland
M:C|
L:1/8
S:Altan
R:reel
K:D
(3ABc|dA (3AAA BAGF|GABd cABc|(3ddd ed cABc|dfed cABc|dA (3AAA BAGF|GABd
 cABc|(3ddd ed cABc|1dfec d2 (3ABc :|2 dfec dAFG|
|:Adfd Adfd|Adfd dcBA|Acec Acec|Acec dcBG|Adfd Adfd|Adfd dcB^g|aA (3AAA
dcBA|1(3Bcd ec dAFG :|(3Bcd ec d2 ||
